images/5459535.svg

<?xml version="1.0" encoding="UTF-8"?>
<svg xmlns="http://www.w3.org/2000/svg" xmlns:xlink="http://www.w3.org/1999/xlink" width="300pt" height="300pt" viewBox="0 0 300 300" version="1.1">
<defs>
<g>
<symbol overflow="visible" id="glyph0-0">
<path style="stroke:none;" d="M 0.453125 1.59375 L 0.453125 -6.34375 L 4.953125 -6.34375 L 4.953125 1.59375 Z M 0.953125 1.09375 L 4.453125 1.09375 L 4.453125 -5.84375 L 0.953125 -5.84375 Z M 0.953125 1.09375 "/>
</symbol>
<symbol overflow="visible" id="glyph0-1">
<path style="stroke:none;" d="M 3.546875 -5.953125 C 2.898438 -5.953125 2.382812 -5.710938 2 -5.234375 C 1.625 -4.753906 1.4375 -4.101562 1.4375 -3.28125 C 1.4375 -2.445312 1.625 -1.789062 2 -1.3125 C 2.382812 -0.832031 2.898438 -0.59375 3.546875 -0.59375 C 4.191406 -0.59375 4.703125 -0.832031 5.078125 -1.3125 C 5.453125 -1.789062 5.640625 -2.445312 5.640625 -3.28125 C 5.640625 -4.101562 5.453125 -4.753906 5.078125 -5.234375 C 4.703125 -5.710938 4.191406 -5.953125 3.546875 -5.953125 Z M 3.546875 -6.6875 C 4.460938 -6.6875 5.195312 -6.375 5.75 -5.75 C 6.300781 -5.132812 6.578125 -4.3125 6.578125 -3.28125 C 6.578125 -2.238281 6.300781 -1.410156 5.75 -0.796875 C 5.195312 -0.179688 4.460938 0.125 3.546875 0.125 C 2.617188 0.125 1.878906 -0.179688 1.328125 -0.796875 C 0.773438 -1.410156 0.5 -2.238281 0.5 -3.28125 C 0.5 -4.3125 0.773438 -5.132812 1.328125 -5.75 C 1.878906 -6.375 2.617188 -6.6875 3.546875 -6.6875 Z M 3.546875 -6.6875 "/>
</symbol>
<symbol overflow="visible" id="glyph0-2">
<path style="stroke:none;" d="M 0.890625 -6.5625 L 2.078125 -6.5625 L 4.984375 -1.078125 L 4.984375 -6.5625 L 5.84375 -6.5625 L 5.84375 0 L 4.65625 0 L 1.75 -5.484375 L 1.75 0 L 0.890625 0 Z M 0.890625 -6.5625 "/>
</symbol>
<symbol overflow="visible" id="glyph0-3">
<path style="stroke:none;" d="M 0.890625 -6.5625 L 1.765625 -6.5625 L 1.765625 -3.875 L 5 -3.875 L 5 -6.5625 L 5.890625 -6.5625 L 5.890625 0 L 5 0 L 5 -3.125 L 1.765625 -3.125 L 1.765625 0 L 0.890625 0 Z M 0.890625 -6.5625 "/>
</symbol>
</g>
</defs>
<g id="surface36505">
<rect x="0" y="0" width="300" height="300" style="fill:rgb(100%,100%,100%);fill-opacity:1;stroke:none;"/>
<path style=" stroke:none;fill-rule:nonzero;fill:rgb(0%,0%,0%);fill-opacity:1;" d="M 123.75 123.214844 L 106.988281 132.609375 L 111.214844 137.78125 Z M 123.75 123.214844 "/>
<path style="fill:none;stroke-width:1.2;stroke-linecap:butt;stroke-linejoin:miter;stroke:rgb(0%,0%,0%);stroke-opacity:1;stroke-miterlimit:10;" d="M 123.75 123.214844 L 141.453125 129.910156 "/>
<path style="fill:none;stroke-width:1.2;stroke-linecap:butt;stroke-linejoin:miter;stroke:rgb(0%,0%,0%);stroke-opacity:1;stroke-miterlimit:10;" d="M 123.75 123.214844 L 120.699219 104.535156 "/>
<path style="fill:none;stroke-width:1.2;stroke-linecap:butt;stroke-linejoin:miter;stroke:rgb(0%,0%,0%);stroke-opacity:1;stroke-miterlimit:10;" d="M 141.453125 129.910156 L 156.101562 117.929688 "/>
<path style="fill:none;stroke-width:1.2;stroke-linecap:butt;stroke-linejoin:miter;stroke:rgb(0%,0%,0%);stroke-opacity:1;stroke-miterlimit:10;" d="M 145.734375 132.160156 L 157.457031 122.574219 "/>
<path style="fill:none;stroke-width:1.2;stroke-linecap:butt;stroke-linejoin:miter;stroke:rgb(0%,0%,0%);stroke-opacity:1;stroke-miterlimit:10;" d="M 156.101562 117.929688 L 173.800781 124.625 "/>
<path style="fill:none;stroke-width:1.2;stroke-linecap:butt;stroke-linejoin:miter;stroke:rgb(0%,0%,0%);stroke-opacity:1;stroke-miterlimit:10;" d="M 173.800781 124.625 L 188.453125 112.644531 "/>
<path style="fill:none;stroke-width:1.2;stroke-linecap:butt;stroke-linejoin:miter;stroke:rgb(0%,0%,0%);stroke-opacity:1;stroke-miterlimit:10;" d="M 173.800781 124.625 L 175.328125 133.964844 "/>
<path style="fill:none;stroke-width:1.2;stroke-linecap:butt;stroke-linejoin:miter;stroke:rgb(0%,0%,100%);stroke-opacity:1;stroke-miterlimit:10;" d="M 175.328125 133.964844 L 176.851562 143.304688 "/>
<path style="fill:none;stroke-width:1.2;stroke-linecap:butt;stroke-linejoin:miter;stroke:rgb(0%,0%,0%);stroke-opacity:1;stroke-miterlimit:10;" d="M 188.453125 112.644531 L 206.152344 119.34375 "/>
<path style="fill:none;stroke-width:1.2;stroke-linecap:butt;stroke-linejoin:miter;stroke:rgb(0%,0%,0%);stroke-opacity:1;stroke-miterlimit:10;" d="M 191.796875 109.152344 L 205.957031 114.507812 "/>
<path style="fill:none;stroke-width:1.2;stroke-linecap:butt;stroke-linejoin:miter;stroke:rgb(0%,0%,0%);stroke-opacity:1;stroke-miterlimit:10;" d="M 185.402344 93.96875 L 188.453125 112.644531 "/>
<path style="fill:none;stroke-width:1.2;stroke-linecap:butt;stroke-linejoin:miter;stroke:rgb(0%,0%,0%);stroke-opacity:1;stroke-miterlimit:10;" d="M 206.152344 119.34375 L 220.800781 107.363281 "/>
<path style="fill:none;stroke-width:1.2;stroke-linecap:butt;stroke-linejoin:miter;stroke:rgb(0%,0%,0%);stroke-opacity:1;stroke-miterlimit:10;" d="M 220.800781 107.363281 L 217.75 88.683594 "/>
<path style="fill:none;stroke-width:1.2;stroke-linecap:butt;stroke-linejoin:miter;stroke:rgb(0%,0%,0%);stroke-opacity:1;stroke-miterlimit:10;" d="M 216.101562 106.210938 L 213.660156 91.269531 "/>
<path style="fill:none;stroke-width:1.2;stroke-linecap:butt;stroke-linejoin:miter;stroke:rgb(0%,0%,0%);stroke-opacity:1;stroke-miterlimit:10;" d="M 217.75 88.683594 L 200.050781 81.988281 "/>
<path style="fill:none;stroke-width:1.2;stroke-linecap:butt;stroke-linejoin:miter;stroke:rgb(0%,0%,0%);stroke-opacity:1;stroke-miterlimit:10;" d="M 217.75 88.683594 L 232.398438 76.703125 "/>
<path style="fill:none;stroke-width:1.2;stroke-linecap:butt;stroke-linejoin:miter;stroke:rgb(0%,0%,0%);stroke-opacity:1;stroke-miterlimit:10;" d="M 200.050781 81.988281 L 185.402344 93.96875 "/>
<path style="fill:none;stroke-width:1.2;stroke-linecap:butt;stroke-linejoin:miter;stroke:rgb(0%,0%,0%);stroke-opacity:1;stroke-miterlimit:10;" d="M 201.402344 86.632812 L 189.683594 96.21875 "/>
<path style="fill:none;stroke-width:1.2;stroke-linecap:butt;stroke-linejoin:miter;stroke:rgb(0%,0%,0%);stroke-opacity:1;stroke-miterlimit:10;" d="M 234.597656 76.34375 L 233.070312 67.007812 "/>
<path style="fill:none;stroke-width:1.2;stroke-linecap:butt;stroke-linejoin:miter;stroke:rgb(100%,0%,0%);stroke-opacity:1;stroke-miterlimit:10;" d="M 233.070312 67.007812 L 231.546875 57.667969 "/>
<path style="fill:none;stroke-width:1.2;stroke-linecap:butt;stroke-linejoin:miter;stroke:rgb(0%,0%,0%);stroke-opacity:1;stroke-miterlimit:10;" d="M 230.203125 77.0625 L 228.675781 67.722656 "/>
<path style="fill:none;stroke-width:1.2;stroke-linecap:butt;stroke-linejoin:miter;stroke:rgb(100%,0%,0%);stroke-opacity:1;stroke-miterlimit:10;" d="M 228.675781 67.722656 L 227.152344 58.386719 "/>
<path style="fill:none;stroke-width:1.2;stroke-linecap:butt;stroke-linejoin:miter;stroke:rgb(0%,0%,0%);stroke-opacity:1;stroke-miterlimit:10;" d="M 232.398438 76.703125 L 241.25 80.050781 "/>
<path style="fill:none;stroke-width:1.2;stroke-linecap:butt;stroke-linejoin:miter;stroke:rgb(100%,0%,0%);stroke-opacity:1;stroke-miterlimit:10;" d="M 241.25 80.050781 L 250.101562 83.398438 "/>
<path style=" stroke:none;fill-rule:nonzero;fill:rgb(100%,100%,100%);fill-opacity:1;" d="M 225.347656 52.527344 L 233.347656 52.527344 L 233.347656 63.527344 L 225.347656 63.527344 Z M 225.347656 52.527344 "/>
<g style="fill:rgb(100%,0%,0%);fill-opacity:1;">
  <use xlink:href="#glyph0-1" x="225.347656" y="61.19043"/>
</g>
<path style="fill:none;stroke-width:1.2;stroke-linecap:butt;stroke-linejoin:miter;stroke:rgb(100%,0%,0%);stroke-opacity:1;stroke-miterlimit:10;" d="M 250.101562 83.398438 L 257.425781 77.410156 "/>
<path style="fill:none;stroke-width:1.2;stroke-linecap:butt;stroke-linejoin:miter;stroke:rgb(0%,0%,0%);stroke-opacity:1;stroke-miterlimit:10;" d="M 257.425781 77.410156 L 264.75 71.417969 "/>
<path style=" stroke:none;fill-rule:nonzero;fill:rgb(100%,100%,100%);fill-opacity:1;" d="M 246.101562 77.898438 L 254.101562 77.898438 L 254.101562 88.898438 L 246.101562 88.898438 Z M 246.101562 77.898438 "/>
<g style="fill:rgb(100%,0%,0%);fill-opacity:1;">
  <use xlink:href="#glyph0-1" x="246.101562" y="86.561523"/>
</g>
<path style="fill:none;stroke-width:1.2;stroke-linecap:butt;stroke-linejoin:miter;stroke:rgb(0%,0%,100%);stroke-opacity:1;stroke-miterlimit:10;" d="M 176.851562 143.304688 L 169.527344 149.292969 "/>
<path style="fill:none;stroke-width:1.2;stroke-linecap:butt;stroke-linejoin:miter;stroke:rgb(0%,0%,0%);stroke-opacity:1;stroke-miterlimit:10;" d="M 169.527344 149.292969 L 162.203125 155.285156 "/>
<path style=" stroke:none;fill-rule:nonzero;fill:rgb(100%,100%,100%);fill-opacity:1;" d="M 169.851562 137.804688 L 183.851562 137.804688 L 183.851562 148.804688 L 169.851562 148.804688 Z M 169.851562 137.804688 "/>
<g style="fill:rgb(0%,0%,100%);fill-opacity:1;">
  <use xlink:href="#glyph0-2" x="169.851562" y="146.467773"/>
  <use xlink:href="#glyph0-3" x="176.829102" y="146.467773"/>
</g>
<path style="fill:none;stroke-width:1.2;stroke-linecap:butt;stroke-linejoin:miter;stroke:rgb(0%,0%,0%);stroke-opacity:1;stroke-miterlimit:10;" d="M 162.992188 153.203125 L 154.140625 149.855469 "/>
<path style="fill:none;stroke-width:1.2;stroke-linecap:butt;stroke-linejoin:miter;stroke:rgb(100%,0%,0%);stroke-opacity:1;stroke-miterlimit:10;" d="M 154.140625 149.855469 L 145.289062 146.503906 "/>
<path style="fill:none;stroke-width:1.2;stroke-linecap:butt;stroke-linejoin:miter;stroke:rgb(0%,0%,0%);stroke-opacity:1;stroke-miterlimit:10;" d="M 161.414062 157.367188 L 152.566406 154.019531 "/>
<path style="fill:none;stroke-width:1.2;stroke-linecap:butt;stroke-linejoin:miter;stroke:rgb(100%,0%,0%);stroke-opacity:1;stroke-miterlimit:10;" d="M 152.566406 154.019531 L 143.714844 150.671875 "/>
<path style="fill:none;stroke-width:1.2;stroke-linecap:butt;stroke-linejoin:miter;stroke:rgb(0%,0%,0%);stroke-opacity:1;stroke-miterlimit:10;" d="M 162.203125 155.285156 L 163.730469 164.621094 "/>
<path style="fill:none;stroke-width:1.2;stroke-linecap:butt;stroke-linejoin:miter;stroke:rgb(100%,0%,0%);stroke-opacity:1;stroke-miterlimit:10;" d="M 163.730469 164.621094 L 165.253906 173.960938 "/>
<path style=" stroke:none;fill-rule:nonzero;fill:rgb(100%,100%,100%);fill-opacity:1;" d="M 136.503906 143.085938 L 144.503906 143.085938 L 144.503906 154.085938 L 136.503906 154.085938 Z M 136.503906 143.085938 "/>
<g style="fill:rgb(100%,0%,0%);fill-opacity:1;">
  <use xlink:href="#glyph0-1" x="136.503906" y="151.749023"/>
</g>
<path style="fill:none;stroke-width:1.2;stroke-linecap:butt;stroke-linejoin:miter;stroke:rgb(100%,0%,0%);stroke-opacity:1;stroke-miterlimit:10;" d="M 165.253906 173.960938 L 157.929688 179.953125 "/>
<path style="fill:none;stroke-width:1.2;stroke-linecap:butt;stroke-linejoin:miter;stroke:rgb(0%,0%,0%);stroke-opacity:1;stroke-miterlimit:10;" d="M 157.929688 179.953125 L 150.605469 185.941406 "/>
<path style=" stroke:none;fill-rule:nonzero;fill:rgb(100%,100%,100%);fill-opacity:1;" d="M 161.253906 168.460938 L 169.253906 168.460938 L 169.253906 179.460938 L 161.253906 179.460938 Z M 161.253906 168.460938 "/>
<g style="fill:rgb(100%,0%,0%);fill-opacity:1;">
  <use xlink:href="#glyph0-1" x="161.253906" y="177.124023"/>
</g>
<path style="fill:none;stroke-width:1.2;stroke-linecap:butt;stroke-linejoin:miter;stroke:rgb(0%,0%,0%);stroke-opacity:1;stroke-miterlimit:10;" d="M 150.605469 185.941406 L 153.65625 204.621094 "/>
<path style="fill:none;stroke-width:1.2;stroke-linecap:butt;stroke-linejoin:miter;stroke:rgb(0%,0%,0%);stroke-opacity:1;stroke-miterlimit:10;" d="M 153.65625 204.621094 L 139.003906 216.601562 "/>
<path style="fill:none;stroke-width:1.2;stroke-linecap:butt;stroke-linejoin:miter;stroke:rgb(0%,0%,0%);stroke-opacity:1;stroke-miterlimit:10;" d="M 155.007812 209.265625 L 143.289062 218.847656 "/>
<path style="fill:none;stroke-width:1.2;stroke-linecap:butt;stroke-linejoin:miter;stroke:rgb(0%,0%,0%);stroke-opacity:1;stroke-miterlimit:10;" d="M 171.355469 211.316406 L 153.65625 204.621094 "/>
<path style="fill:none;stroke-width:1.2;stroke-linecap:butt;stroke-linejoin:miter;stroke:rgb(0%,0%,0%);stroke-opacity:1;stroke-miterlimit:10;" d="M 139.003906 216.601562 L 142.058594 235.277344 "/>
<path style="fill:none;stroke-width:1.2;stroke-linecap:butt;stroke-linejoin:miter;stroke:rgb(0%,0%,0%);stroke-opacity:1;stroke-miterlimit:10;" d="M 142.058594 235.277344 L 159.757812 241.972656 "/>
<path style="fill:none;stroke-width:1.2;stroke-linecap:butt;stroke-linejoin:miter;stroke:rgb(0%,0%,0%);stroke-opacity:1;stroke-miterlimit:10;" d="M 145.402344 231.78125 L 159.5625 237.140625 "/>
<path style="fill:none;stroke-width:1.2;stroke-linecap:butt;stroke-linejoin:miter;stroke:rgb(0%,0%,0%);stroke-opacity:1;stroke-miterlimit:10;" d="M 159.757812 241.972656 L 174.40625 229.992188 "/>
<path style="fill:none;stroke-width:1.2;stroke-linecap:butt;stroke-linejoin:miter;stroke:rgb(0%,0%,0%);stroke-opacity:1;stroke-miterlimit:10;" d="M 174.40625 229.992188 L 171.355469 211.316406 "/>
<path style="fill:none;stroke-width:1.2;stroke-linecap:butt;stroke-linejoin:miter;stroke:rgb(0%,0%,0%);stroke-opacity:1;stroke-miterlimit:10;" d="M 169.707031 228.84375 L 167.265625 213.902344 "/>
<path style="fill:none;stroke-width:1.2;stroke-linecap:butt;stroke-linejoin:miter;stroke:rgb(0%,0%,0%);stroke-opacity:1;stroke-miterlimit:10;" d="M 122.109375 106.261719 L 129.433594 100.269531 "/>
<path style="fill:none;stroke-width:1.2;stroke-linecap:butt;stroke-linejoin:miter;stroke:rgb(100%,0%,0%);stroke-opacity:1;stroke-miterlimit:10;" d="M 129.433594 100.269531 L 136.761719 94.28125 "/>
<path style="fill:none;stroke-width:1.2;stroke-linecap:butt;stroke-linejoin:miter;stroke:rgb(0%,0%,0%);stroke-opacity:1;stroke-miterlimit:10;" d="M 119.292969 102.8125 L 126.617188 96.824219 "/>
<path style="fill:none;stroke-width:1.2;stroke-linecap:butt;stroke-linejoin:miter;stroke:rgb(100%,0%,0%);stroke-opacity:1;stroke-miterlimit:10;" d="M 126.617188 96.824219 L 133.941406 90.832031 "/>
<path style="fill:none;stroke-width:1.2;stroke-linecap:butt;stroke-linejoin:miter;stroke:rgb(0%,0%,0%);stroke-opacity:1;stroke-miterlimit:10;" d="M 120.699219 104.535156 L 111.851562 101.1875 "/>
<path style="fill:none;stroke-width:1.2;stroke-linecap:butt;stroke-linejoin:miter;stroke:rgb(0%,0%,100%);stroke-opacity:1;stroke-miterlimit:10;" d="M 111.851562 101.1875 L 103 97.839844 "/>
<path style=" stroke:none;fill-rule:nonzero;fill:rgb(100%,100%,100%);fill-opacity:1;" d="M 131.351562 87.054688 L 139.351562 87.054688 L 139.351562 98.054688 L 131.351562 98.054688 Z M 131.351562 87.054688 "/>
<g style="fill:rgb(100%,0%,0%);fill-opacity:1;">
  <use xlink:href="#glyph0-1" x="131.351562" y="95.717773"/>
</g>
<path style="fill:none;stroke-width:1.2;stroke-linecap:butt;stroke-linejoin:miter;stroke:rgb(0%,0%,100%);stroke-opacity:1;stroke-miterlimit:10;" d="M 103 97.839844 L 101.476562 88.5 "/>
<path style="fill:none;stroke-width:1.2;stroke-linecap:butt;stroke-linejoin:miter;stroke:rgb(0%,0%,0%);stroke-opacity:1;stroke-miterlimit:10;" d="M 101.476562 88.5 L 99.949219 79.164062 "/>
<path style="fill:none;stroke-width:1.2;stroke-linecap:butt;stroke-linejoin:miter;stroke:rgb(0%,0%,100%);stroke-opacity:1;stroke-miterlimit:10;" d="M 103 97.839844 L 95.675781 103.832031 "/>
<path style="fill:none;stroke-width:1.2;stroke-linecap:butt;stroke-linejoin:miter;stroke:rgb(0%,0%,0%);stroke-opacity:1;stroke-miterlimit:10;" d="M 95.675781 103.832031 L 88.351562 109.820312 "/>
<path style=" stroke:none;fill-rule:nonzero;fill:rgb(100%,100%,100%);fill-opacity:1;" d="M 100 92.339844 L 107 92.339844 L 107 103.339844 L 100 103.339844 Z M 100 92.339844 "/>
<g style="fill:rgb(0%,0%,100%);fill-opacity:1;">
  <use xlink:href="#glyph0-2" x="100" y="101.00293"/>
</g>
<path style="fill:none;stroke-width:1.2;stroke-linecap:butt;stroke-linejoin:miter;stroke:rgb(0%,0%,0%);stroke-opacity:1;stroke-miterlimit:10;" d="M 88.351562 109.820312 L 70.652344 103.125 "/>
<path style="fill:none;stroke-width:1.2;stroke-linecap:butt;stroke-linejoin:miter;stroke:rgb(0%,0%,0%);stroke-opacity:1;stroke-miterlimit:10;" d="M 70.652344 103.125 L 67.601562 84.445312 "/>
<path style="fill:none;stroke-width:1.2;stroke-linecap:butt;stroke-linejoin:miter;stroke:rgb(0%,0%,0%);stroke-opacity:1;stroke-miterlimit:10;" d="M 65.949219 101.972656 L 63.511719 87.03125 "/>
<path style="fill:none;stroke-width:1.2;stroke-linecap:butt;stroke-linejoin:miter;stroke:rgb(0%,0%,0%);stroke-opacity:1;stroke-miterlimit:10;" d="M 56 115.105469 L 70.652344 103.125 "/>
<path style="fill:none;stroke-width:1.2;stroke-linecap:butt;stroke-linejoin:miter;stroke:rgb(0%,0%,0%);stroke-opacity:1;stroke-miterlimit:10;" d="M 67.601562 84.445312 L 49.898438 77.75 "/>
<path style="fill:none;stroke-width:1.2;stroke-linecap:butt;stroke-linejoin:miter;stroke:rgb(0%,0%,0%);stroke-opacity:1;stroke-miterlimit:10;" d="M 49.898438 77.75 L 35.25 89.730469 "/>
<path style="fill:none;stroke-width:1.2;stroke-linecap:butt;stroke-linejoin:miter;stroke:rgb(0%,0%,0%);stroke-opacity:1;stroke-miterlimit:10;" d="M 51.253906 82.394531 L 39.535156 91.980469 "/>
<path style="fill:none;stroke-width:1.2;stroke-linecap:butt;stroke-linejoin:miter;stroke:rgb(0%,0%,0%);stroke-opacity:1;stroke-miterlimit:10;" d="M 35.25 89.730469 L 38.300781 108.410156 "/>
<path style="fill:none;stroke-width:1.2;stroke-linecap:butt;stroke-linejoin:miter;stroke:rgb(0%,0%,0%);stroke-opacity:1;stroke-miterlimit:10;" d="M 38.300781 108.410156 L 56 115.105469 "/>
<path style="fill:none;stroke-width:1.2;stroke-linecap:butt;stroke-linejoin:miter;stroke:rgb(0%,0%,0%);stroke-opacity:1;stroke-miterlimit:10;" d="M 41.648438 104.914062 L 55.808594 110.269531 "/>
</g>
</svg>

<svg xmlns="http://www.w3.org/2000/svg" xmlns:xlink="http://www.w3.org/1999/xlink" width="300pt" height="300pt" viewBox="0 0 300 300"><defs><symbol overflow="visible"><path d="M.453 1.594v-7.938h4.5v7.938zm.5-.5h3.5v-6.938h-3.5zm0 0"/></symbol><symbol overflow="visible" id="a"><path d="M3.547-5.953c-.65 0-1.164.242-1.547.72-.375.48-.563 1.13-.563 1.952 0 .835.188 1.49.563 1.967.383.48.898.72 1.547.72.644 0 1.156-.24 1.53-.72.376-.476.564-1.132.564-1.968 0-.822-.187-1.474-.562-1.954-.375-.477-.887-.72-1.53-.72zm0-.734c.914 0 1.648.312 2.203.937.55.617.828 1.438.828 2.47 0 1.042-.277 1.87-.828 2.483-.555.617-1.29.922-2.203.922-.93 0-1.668-.305-2.22-.922C.774-1.41.5-2.237.5-3.28c0-1.033.273-1.853.828-2.47.55-.625 1.29-.938 2.22-.938zm0 0"/></symbol><symbol overflow="visible" id="b"><path d="M.89-6.563H2.08l2.906 5.485v-5.484h.86V0H4.656L1.75-5.484V0H.89zm0 0"/></symbol><symbol overflow="visible" id="c"><path d="M.89-6.563h.876v2.688H5v-2.688h.89V0H5v-3.125H1.766V0H.89zm0 0"/></symbol></defs><g><path fill="#fff" d="M0 0h300v300H0z"/><path d="M123.75 123.215l-16.762 9.394 4.227 5.17zm0 0"/><path d="M123.75 123.215l17.703 6.695M123.75 123.215l-3.05-18.68M141.453 129.91l14.65-11.98M145.734 132.16l11.723-9.586M156.102 117.93l17.7 6.695M173.8 124.625l14.653-11.98M173.8 124.625l1.528 9.34" stroke-width="1.2" stroke="#000" stroke-miterlimit="10" fill="none"/><path d="M175.328 133.965l1.524 9.34" stroke-width="1.2" stroke="#00f" stroke-miterlimit="10" fill="none"/><path d="M188.453 112.645l17.7 6.7M191.797 109.152l14.16 5.356M185.402 93.97l3.05 18.675M206.152 119.344l14.65-11.98M220.8 107.363l-3.05-18.68M216.102 106.21l-2.442-14.94M217.75 88.684l-17.7-6.696M217.75 88.684l14.648-11.98M200.05 81.988l-14.648 11.98M201.402 86.633l-11.718 9.586M234.598 76.344l-1.528-9.336" stroke-width="1.2" stroke="#000" stroke-miterlimit="10" fill="none"/><path d="M233.07 67.008l-1.523-9.34" stroke-width="1.2" stroke="#f00" stroke-miterlimit="10" fill="none"/><path d="M230.203 77.063l-1.527-9.34" stroke-width="1.2" stroke="#000" stroke-miterlimit="10" fill="none"/><path d="M228.676 67.723l-1.524-9.336" stroke-width="1.2" stroke="#f00" stroke-miterlimit="10" fill="none"/><path d="M232.398 76.703l8.852 3.348" stroke-width="1.2" stroke="#000" stroke-miterlimit="10" fill="none"/><path d="M241.25 80.05l8.852 3.348" stroke-width="1.2" stroke="#f00" stroke-miterlimit="10" fill="none"/><path d="M225.348 52.527h8v11h-8zm0 0" fill="#fff"/><use xlink:href="#a" x="225.348" y="61.19" fill="#f00"/><path d="M250.102 83.398l7.324-5.988" stroke-width="1.2" stroke="#f00" stroke-miterlimit="10" fill="none"/><path d="M257.426 77.41l7.324-5.992" stroke-width="1.2" stroke="#000" stroke-miterlimit="10" fill="none"/><path d="M246.102 77.898h8v11h-8zm0 0" fill="#fff"/><use xlink:href="#a" x="246.102" y="86.562" fill="#f00"/><path d="M176.852 143.305l-7.325 5.988" stroke-width="1.2" stroke="#00f" stroke-miterlimit="10" fill="none"/><path d="M169.527 149.293l-7.324 5.992" stroke-width="1.2" stroke="#000" stroke-miterlimit="10" fill="none"/><path d="M169.852 137.805h14v11h-14zm0 0" fill="#fff"/><g fill="#00f"><use xlink:href="#b" x="169.852" y="146.468"/><use xlink:href="#c" x="176.829" y="146.468"/></g><path d="M162.992 153.203l-8.85-3.348" stroke-width="1.2" stroke="#000" stroke-miterlimit="10" fill="none"/><path d="M154.14 149.855l-8.85-3.35" stroke-width="1.2" stroke="#f00" stroke-miterlimit="10" fill="none"/><path d="M161.414 157.367l-8.848-3.347" stroke-width="1.2" stroke="#000" stroke-miterlimit="10" fill="none"/><path d="M152.566 154.02l-8.85-3.348" stroke-width="1.2" stroke="#f00" stroke-miterlimit="10" fill="none"/><path d="M162.203 155.285l1.527 9.336" stroke-width="1.2" stroke="#000" stroke-miterlimit="10" fill="none"/><path d="M163.73 164.62l1.524 9.34" stroke-width="1.2" stroke="#f00" stroke-miterlimit="10" fill="none"/><path d="M136.504 143.086h8v11h-8zm0 0" fill="#fff"/><use xlink:href="#a" x="136.504" y="151.749" fill="#f00"/><path d="M165.254 173.96l-7.324 5.993" stroke-width="1.2" stroke="#f00" stroke-miterlimit="10" fill="none"/><path d="M157.93 179.953l-7.325 5.988" stroke-width="1.2" stroke="#000" stroke-miterlimit="10" fill="none"/><path d="M161.254 168.46h8v11h-8zm0 0" fill="#fff"/><use xlink:href="#a" x="161.254" y="177.124" fill="#f00"/><path d="M150.605 185.94l3.05 18.68M153.656 204.62l-14.652 11.982M155.008 209.266l-11.72 9.582M171.355 211.316l-17.7-6.695M139.004 216.602l3.055 18.675M142.06 235.277l17.698 6.696M145.402 231.78l14.16 5.36M159.758 241.973l14.648-11.98M174.406 229.992l-3.05-18.676M169.707 228.844l-2.44-14.942M122.11 106.262l7.324-5.992" stroke-width="1.2" stroke="#000" stroke-miterlimit="10" fill="none"/><path d="M129.434 100.27l7.328-5.99" stroke-width="1.2" stroke="#f00" stroke-miterlimit="10" fill="none"/><path d="M119.293 102.813l7.324-5.99" stroke-width="1.2" stroke="#000" stroke-miterlimit="10" fill="none"/><path d="M126.617 96.824l7.324-5.992" stroke-width="1.2" stroke="#f00" stroke-miterlimit="10" fill="none"/><path d="M120.7 104.535l-8.848-3.347" stroke-width="1.2" stroke="#000" stroke-miterlimit="10" fill="none"/><path d="M111.852 101.188L103 97.84" stroke-width="1.2" stroke="#00f" stroke-miterlimit="10" fill="none"/><path d="M131.352 87.055h8v11h-8zm0 0" fill="#fff"/><use xlink:href="#a" x="131.352" y="95.718" fill="#f00"/><path d="M103 97.84l-1.523-9.34" stroke-width="1.2" stroke="#00f" stroke-miterlimit="10" fill="none"/><path d="M101.477 88.5l-1.528-9.336" stroke-width="1.2" stroke="#000" stroke-miterlimit="10" fill="none"/><path d="M103 97.84l-7.324 5.992" stroke-width="1.2" stroke="#00f" stroke-miterlimit="10" fill="none"/><path d="M95.676 103.832l-7.324 5.988" stroke-width="1.2" stroke="#000" stroke-miterlimit="10" fill="none"/><path d="M100 92.34h7v11h-7zm0 0" fill="#fff"/><use xlink:href="#b" x="100" y="101.003" fill="#00f"/><path d="M88.352 109.82l-17.7-6.695M70.652 103.125l-3.05-18.68M65.95 101.973L63.51 87.03M56 115.105l14.652-11.98M67.602 84.445L49.898 77.75M49.898 77.75L35.25 89.73M51.254 82.395l-11.72 9.585M35.25 89.73l3.05 18.68M38.3 108.41l17.7 6.695M41.648 104.914l14.16 5.356" stroke-width="1.2" stroke="#000" stroke-miterlimit="10" fill="none"/></g></svg>
